X:1
T:Farewell My Joy and Heart
F:http://www.folkinfo.org/songs
B:A Dorset Book of Folk Songs, EFDSS, 1958
S:J Baker, Bere Regis
M:4/4     %Meter
L:1/8     %
K:AAeo
A2 |A2 D2 E2 F2 |G4 A4 |A2 G2 E2 E2 | E4 
w:Fare-well, my joy and heart since you and I must  part,
F2 G2 |A4 A2 B2 |c4 B2 B2 |A6 
w: You're the fair-est that e'er I did see, 
G2 |A2 A2 B2 c2 |d4 c2 B2 |A2 G2 F2 D2 |(D2C2) 
w:It's down in Cu-pid's chains where we used for to re-main_ 
D2 E2 |(F2G2) A2 A2 |G4 E2 D2 |D6  |]
w:And in tears_ I will spend the whole day. 
